X:1
T:Lagrime tutte amare
T:Giovanni Felice Sances
T:Source : Cantate et arie a voce sola---Libro IV---Venetia---A.Vincenti---1636. Editor : André Vierendeels (30/03/15).
T:Notes : Original clefs : C1, F4 Editorial accidentals above the staff Squate bracket indicates ligature BC :"alfabetto per la chitarra alla spagnola" realised by the editor Figures in BC are notated in original print 3/2 notated in 3/1 in original print.
T:Lagrime tutte amare
C:Giovanni Felice Sances
%%score ( 1 2 ) { ( 3 5 ) | 4 }
L:1/8
Q:1/4=96
M:4/4
K:C
V:1 treble nm="Canto" snm="C"
V:2 treble 
V:3 treble nm="BC" snm="BC"
V:5 treble 
V:4 bass 
V:1
 z4 A4- | A2 A2 A4 | A3 ^G A4 | A8 | z AcB d3 ^F | ^G8 | z4 e4- | e2 e2 e2 ed | e4 e2 gf | %9
w: La-|* gri- me|tut- te'a- ma-|re|che ver- sa'il mio do-|lor,|la-|* gri- me tut- te|ca- te che _|
w: Dal|_ san- gue|mio pen- de-|te|lo spir- to vi- *|tal,|dal|_ san- gue scio- ig-|lie- te la _|
"^b" ed _e2 d3 d | c8 | z2 G2 ^GGGG | A4 B2 cd | c3 e fe dc | B3 B A4 ::[M:3/2] z4 A4 c4 | %16
w: stil- * la la mia|fe,|u- scen- do dal mio|cor i- te'al mio|cor ar- do _ man- *|dar mer- ce.|Sia- te|
w: fiam- * ma piu fe-|del,|do- len- t'e'in- un le-|al, me di- pin-|ge- te'in- nan- * ti'al- *|la cru- del.|So- lo|
 B6 A2 G4 | z4 ^F4 G4 | G12- | ^F8 F4 | E4 B4 e4 | x12 | z4 ^c4 d4 | d12- | d8 ^c4 | %25
w: can- di- de,|sia- te|fle-|* bi-|li, sia- te||sia- te|fle-|* bi-|
w: pre- go- vi,|ch'el- la|mi|_ ri-|vi, so lo||ch'el- la|mi|_ ri-|
[M:4/4] B2 d4 G2 | A8 | AA/A/ Bc d/e/d/c/ B/A/G/F/ | E2 e/d/c/B/ A2 AA | G4 BB/B/ cd | %30
w: li spe- rar|vuo,|goc- cia ch'o- gn'hor ca- de _ _ _ _ _ _ _|_ mar- * * * * mo spez-|zo, goc- cia ch'o- gn'hor ca-|
w: vi, poi che|sa,|non si mi- ra mar- tir _ _ _ _ _ _ _|_ sen- * * * * za pie-|ta, non si mi- ra mar-|
 e/f/e/d/ c/B/A/G/ F2 f/e/d/c/ | B2 BB A4 :| %32
w: de _ _ _ _ _ _ _ _ mar- * * *|* mo spez- zo.|
w: tir _ _ _ _ _ _ _ _ sen- * * *|* za pie- ta.|
V:2
 x8 | x8 | x8 | x8 | x8 | x8 | x8 | x8 | x8 | x8 | x8 | x8 | x8 | x8 | x8 ::[M:3/2] x12 | x12 | %17
 x12 | x12 | x12 | x12 | d6 ^c2 B4 | x12 | x12 | x12 |[M:4/4] x8 | x8 | x8 | x8 | x8 | x8 | x8 :| %32
V:3
 [Ec]8- | z8 | z8 | z8 | x8 | x8 | x8 | x8 | x8 | x8 | x8 | x8 | x8 | x8 | ^G4 E4 :: %15
[M:3/2] [Ec]12 | [GB]12 | c12 | [DB-]12 | B8 A4 | [B,^G]4 [B,E]8 | [^FB]4 [EA]4 [DG]4 | B4 A4 G4 | %23
 [DA]12- | [DA]8 [^CA]4 |[M:4/4] [D^F]2 [DG]2 [DB]4 | [D^F]8 | A4 G4 | [Gc]4 [FA]4 | %29
 [GB]4 [EG]2 [FA]2 | [Ec]4 [FA]4 | [^GB]4 [A^c]4 :| %32
V:4
 A,,8- | A,,8 | B,,4 A,,4 | A,,8 | A,4 F,4 | E,8 | E,8- | E,4 F,4 | E,4 C,4 | F,4 G,4 | C,8 | %11
 C,4 B,,4 | A,,4 ^G,,4 | A,,4 D,4 | E,4 A,,4 ::[M:3/2] A,,12 | E,12 | A,,12 | B,,12- | B,,12 | %20
 E,12 | B,,12 | E,12 | ^F,12- | F,12 |[M:4/4] B,,4 G,,4 | D,8 | D,2 C,2 B,,4 | C,4 D,4 | %29
 G,2 F,2 E,2 D,2 | C,4 D,4 | E,4 A,,4 :| %32
V:5
 x8 | x8 | x8 | x8 | E4 A4 | [E^G]8 | [EB]8- | [EB]4 [CA]4 | [GB]4 [EG]4 | [CA]4 [DG]4 | [EG]8 | %11
 [Ec]4 [EB]4 | [CE]4 [B,E]4 | [CE]4 [FA]4 | B,4 C4 ::[M:3/2] x12 | x12 | E4 D4 E4 | x12 | ^F8 ^D4 | %20
 x12 | x12 | E4 E4 B,4 | x12 | x12 |[M:4/4] x8 | x8 | ^F2 E2 D4 | x8 | x8 | x8 | x8 :| %32

